X:1

T:Batt Henry’s Favourite

M:C

L:1/8

R:Barndance

S:Treoir, vol. 36, No. 1, 2004

Z:AK/Fiddler’s Companion

K:G

(3def | g2B2d2G2 | B2D2A2A2 | fedc B2GB | Adfe d2 (3def | g2B2d2G2 |

B2D2A2A2 | fedc (3BcB AF | G2F2G3B | d2B2d2B2 | d2e2 ed^ce |

abag fdef | gfgb ageg | d2B2d2B2 | d2e2 ed^ce | abag fdef | g2f2g2 (3Bcd ||

e2d2d2 (3efg | a2g2g2ag | (3fgf (3efe (3ded (3=cdc | BABc dcBd | e2d2d2(3efg |

a2g2g2ag | (3fgf (3efe (3ded (3=cBc | (3BcB (3ABA G3e ||

K:D

fgfe f2a2 | d2 dc d2f2 | fe^de geBc | dcdf abag | fgfe f2a2 | d2 dc d2f2 |

fe^de geBc | d2c2d2 ||

 

BATTERING RAM [1], THE. Irish, Double Jig. G Major. Standard tuning. ABC (Flaherty): AABBCC (most versions): ABCD (Miller). Doolin, north County Clare, tin whistle player Micho Russell saw the melody as a programmatic piece which reminded him of the battering ram which the English used to evict poor people in Ireland in the 19th century. Each succeeding part represented the increasing force of the ram as it demolished the house. Ciaran Carson, in his book Last Night’s Fun (1996) describes flute player Seamus Tansey’s rendition of the melody:

***

He soars into ‘The Battering Ram’—not the standard version, but the

one he got from Jim Donoghue, the great Sligo tin-whistle-player who

perversely played a ‘C’ whistle (‘D’ is standard) out of the side of his

mouth, and produced a great strong flute-like tone full of wood and

embouchure and breath, jumping octaves; and he put a funny twist

into this jig; reversing it and generally standing phrases on their

heads. Tansy imputes many of his stylistic traits to Donoghue, and

this tune is a tribute, an hommage, a dedication, Tansey playing it

beautifully as he can because he loves the playing of Jim Donoghue,

and he is beholden to him.  (pgs. 60-61)

***

Much further a-field (and admittedly irrelevant to the tune), ‘Battering’ has another meaning in the context of Irish music and dance, however, signifying the production of rhythm to the beat of the music. John Kerr (Irtrad 3/03) explains:

***

"Battering", in relation to dancing of Irish country sets (e.g. Caledonian,
Lancers, etc.), is the pounding out of rhythm with the feet that is done by
the dancers as they execute the figures of the set.  Traditionally,
battering was typically done by the male dancers, and often in the old house
dancing days a flagstone was specially placed with no earth underneath it
in front of the fireplace so as to better pick up the rhythms pounded out by
the dancer at the top of the set. I have seen demonstrations of older
dancers in Clare dancing sets and battering in the traditional style, and
it's a truly beautiful thing. Even without the music, you could hear the
rhythms of the tune being played, be it a reel, jig or hornpipe, and almost
be able to ascertain what tune it was by name.
***
Nowadays, in "modern" set dancing, everybody batters, and the sky's the
limit. There's no subtlety at all, no nuance, no art or music to it
whatsoever. To gain a sense of it, think of the finest, most artful bodhran
playing you have ever heard. Then think of a room full of bodhran players
pounding away at will, as loud as they can. The gulf between what battering
once was and what it has now been reduced to is a thousand times greater
than that.

***

Sources for notated versions: ‘Clarke's whistle’ {i.e. a conical whistle} player Jim Donoghue, 1910-1990 (Drimacoo, Monasteraden, Co. Sligo, Ireland) [Flaherty]; the Tulla Ceili Band [Mulvihill]; sessions in the Regent Hotel, Leeds, England [Bulmer & Sharpley]; the 1968 Topic recording of Lucy Farr (1911-2003, Co. Galway), Jimmy Power (1918-1985, Co. Waterford) & Andy O’Boyle (Co. Mayo) [Miller & Perron]; New Jersey flute player Mike Rafferty, born in Ballinakill, Co. Galway, in 1926 [Harker]; from a recording of Sean Ryan [O’Malley]. Brody (Fiddler’s Fakebook), 1983; pg. 36. Bulmer & Sharpley (Music from Ireland), 1974, vol. 1, No. 54. Flaherty (Trip to Sligo), 1990; pg. 178. Harker (300 Tunes from Mike Rafferty), 2005; No. 227, pg. 70. Mallinson (Essential), 1995; No. 95, pg. 41. Miller & Perron (Traditional Irish Fiddle Music), 1977; vol. 1, No. 32. Miller & Perron (Traditional Irish Fiddle Music, 2nd Edition), 2006; pg. 14. Mulvihill (1st Collection), 1986; No. 77, pg. 81. O’Malley (Luke O’Malley’s Collection of Irish Music, vol. 1), 1976; No. 97, pg. 49. Russell (The Piper’s Chair), 1989; pg. 12. Sullivan (Session Tunes), vol. 2; No. 29, pg. 12. Tubridy (Irish Traditional Music, vol. 1), 1999; pg. 35. Front Hall, How To Change a Flat Tire‑ "A Point of Departure." Shanachie 79021, “Chieftains #1.” Topic Records 12T176, Jimmy Power, Lucy Farr & Andy O’Boyle – “Paddy in the Smoke: Irish Dance Music from a London Pub” (1968).

See also listings at:

Jane Keefer’s Folk Music Index: An Index to Recorded Sources 

Alan Ng’s Irishtune.info

